X:1
T:Title
T:SILENT NIGHT
T:Franz Xaver Huber
T:Joseph Mohr
T:Composed in 1818. Declared an intangible cultural heritage by UNESCO in 2011. 
C:Composer
%%score { 1 | 2 }
L:1/8
M:3/4
K:G
V:1 treble-8 nm="Acoustic Guitar"
V:2 tab stafflines=6 strings=E2,A2,D3,G3,B3,E4 nostems 
V:1
"G" D3 E D2 | B,6 | D3 E D2 | B,6 |"D" A4 A2 | F6 |"G" G4 G2 | D6 |"C" E4 E2 | G3 F E2 | %10
w: Si- * lent|night.|Ho- * ly|night.|All is|calm.|All is|bright.|'Round yon|vir- * gin|
"G" D3 E D2 | B,6 |"C" E4 E2 | G3 F E2 |"G" D3 E D2 | B,6 |"D" A4 A2 | c3 A F2 |"G" G6 | B6 | %20
w: mo- ther and|child.|Ho- ly|in- fant so|ten- der and|mild.|Sleep in|hea- ven- ly|pea-|ce.|
 G2 D2 B,2 |"D" D3 C A,2 |"G" G,6- | G,4 z2 :| %24
w: Sle ep in|hea- ven- ly|peace.|_|
V:2
 !4!D,3 !4!E, !4!D,2 | !5!B,,6 | !4!D,3 !4!E, !4!D,2 | !5!B,,6 | !3!A,4 !3!A,2 | !4!F,6 | %6
 !3!G,4 !3!G,2 | !4!D,6 | !4!E,4 !4!E,2 | !3!G,3 !4!F, !4!E,2 | !4!D,3 !4!E, !4!D,2 | !5!B,,6 | %12
 !4!E,4 !4!E,2 | !3!G,3 !4!F, !4!E,2 | !4!D,3 !4!E, !4!D,2 | !5!B,,6 | !3!A,4 !3!A,2 | %17
 !2!C3 !3!A, !4!F,2 | !3!G,6 | !2!B,6 | !3!G,2 !4!D,2 !5!B,,2 | !4!D,3 !5!C, !5!A,,2 | !6!G,,6- | %23
 !6!G,,4 x2 :| %24

